X:50C
T:Bury Waltz
O:No 50 Wm Clarke MS  Feltwell, Norfolk
N:Extended version of Waltz 028. (Includes a B part.
N:In MS the 3rd part has 5 bars repeated then 3 bars repeated.
N:Flow instructions are editorial to give a 48 bar tune.
I:abc2nwc
M:3/4
L:1/8
K:C
e2|g2f2d2|e4c2|d3/2e/2 f2a2|g4e2|g2f2d2|e4c2|d3/2e/2 f2d2|c4:|
|:d3/2c/2|B2G2B2|c4e2|d3/2e/2 f2a2|
g4d3/2c/2|B2G2B2|c4e2|d3/2e/2 (fd)(Bd)|c4:|
|:E3/2G/2|c2c2E3/2G/2|c2c2e2|d2d2g2|e2c2E3/2G/2|
c2c2E3/2G/2|c2c2e2|df Bd GB|c4|]

